symbols/web/assistant_navigation/materialsymbolsrounded/assistant_navigation_wght100grad200fill1_48px.svg

<svg xmlns="http://www.w3.org/2000/svg" height="48" width="48"><path d="m18.4 31.7 5.25-2.5h.7l5.25 2.5q.45.25.825-.125.375-.375.225-.875l-5.9-14.1q-.2-.45-.75-.45t-.7.45l-5.9 14.1q-.2.5.175.875t.825.125ZM24 5.8q3.8 0 7.125 1.4t5.8 3.875q2.475 2.475 3.875 5.8Q42.2 20.2 42.2 24q0 3.75-1.4 7.075t-3.875 5.8q-2.475 2.475-5.8 3.9Q27.8 42.2 24 42.2q-3.75 0-7.075-1.425t-5.8-3.875q-2.475-2.45-3.9-5.8Q5.8 27.75 5.8 24q0-3.8 1.425-7.125t3.9-5.8Q13.6 8.6 16.925 7.2 20.25 5.8 24 5.8Z"/></svg>

<svg xmlns="http://www.w3.org/2000/svg" height="48" width="48"><path d="M18.4 31.7 23.65 29.2Q23.75 29.2 23.95 29.2Q24.15 29.2 24.35 29.2L29.6 31.7Q30.05 31.95 30.425 31.575Q30.8 31.2 30.65 30.7L24.75 16.6Q24.55 16.15 24 16.15Q23.45 16.15 23.3 16.6L17.4 30.7Q17.2 31.2 17.575 31.575Q17.95 31.95 18.4 31.7ZM24 5.8Q27.8 5.8 31.125 7.2Q34.45 8.6 36.925 11.075Q39.4 13.55 40.8 16.875Q42.2 20.2 42.2 24Q42.2 27.75 40.8 31.075Q39.4 34.4 36.925 36.875Q34.45 39.35 31.125 40.775Q27.8 42.2 24 42.2Q20.25 42.2 16.925 40.775Q13.6 39.35 11.125 36.9Q8.65 34.45 7.225 31.1Q5.8 27.75 5.8 24Q5.8 20.2 7.225 16.875Q8.65 13.55 11.125 11.075Q13.6 8.6 16.925 7.2Q20.25 5.8 24 5.8Z"/></svg>
